X: 28
M:4/4
L:1/8
K:C
c2 gc acgc|sBcs ge dcBd|c2 gc acgc|seas ge sdBs GB||
|:scdefs sgfges|scdecs sdBGBs|scdefs sgfges|afge dBGB:|
|:(3cBA eA fAeA|(3cBA eA dBGB|(3cBA eA fAeA|(5g/2a/2g/2f/2g/2 gd BGGB:|
|:Aceg ^fdec|Acec dBGB|sAcegs s^fdefs|gfge dBGB:|
|:(3cBA eA (3cBA eA|(3cBA eA .d.B.G.B|(3cBA eA (3cBA ef|gfge dBGB:||

